libs/ui/packages/crypto-icons/src/svg/OAX.svg

<svg width="24" height="24" viewBox="0 0 24 24" fill="none">
<path d="M10.568 14.0009L10.1007 14.9984H9.06424L11.879 8.99994L13.7562 12.9997H12.695L11.855 11.2634L11.0135 13.0289L10.568 14.0009ZM14.6585 14.9759L16.856 12.0134L14.6427 9.02844H15.854L17.4597 11.2109L16.8755 12.0134L17.4597 12.8159L15.8547 14.9984H13.6325L13.163 14.0009H14.1995L14.6585 14.9759ZM18.053 12.0007L17.4597 11.1854L19.0655 9.00294H20.2505L18.053 12.0007ZM18.053 12.0007L20.2505 14.9992H19.0655L17.4605 12.8167L18.053 12.0007ZM8.56699 9.86919C8.83636 10.1535 9.04691 10.4882 9.18656 10.8541C9.32621 11.2201 9.3922 11.61 9.38074 12.0014C9.39103 12.7897 9.09995 13.5521 8.56699 14.1329C8.02549 14.7397 7.35574 14.9999 6.56599 14.9999C6.19033 15.0037 5.81808 14.9284 5.47336 14.7791C5.12865 14.6297 4.81917 14.4096 4.56499 14.1329C4.02333 13.5575 3.73064 12.7915 3.75049 12.0014C3.73842 11.3829 3.91958 10.7759 4.26874 10.2652L4.95874 11.0002C4.74273 11.3856 4.65277 11.829 4.70146 12.2681C4.75015 12.7073 4.93505 13.1202 5.23024 13.4489C5.39753 13.6384 5.6029 13.7904 5.83294 13.8951C6.06298 13.9998 6.31251 14.0548 6.56524 14.0564C7.06924 14.0564 7.55074 13.8367 7.90024 13.4489C8.07952 13.2592 8.21968 13.0361 8.31272 12.7922C8.40576 12.5484 8.44985 12.2886 8.44249 12.0277C8.44424 11.5027 8.2507 10.9959 7.89949 10.6057C7.7314 10.4193 7.52519 10.2713 7.29484 10.1716C7.0645 10.072 6.81541 10.0231 6.56449 10.0282C6.2329 10.0191 5.90632 10.1106 5.62774 10.2907L4.93774 9.55569C5.40111 9.18931 5.97685 8.9943 6.56749 9.00369C6.94311 8.99698 7.31582 9.07074 7.66058 9.22003C8.00533 9.36931 8.31413 9.59066 8.56624 9.86919H8.56699Z" fill="#164B79"/>
</svg>

<svg width="24" height="24" viewBox="0 0 24 24" fill="none"><path fill="#164b79" d="m10.568 14-.467.998H9.064L11.88 9l1.877 4h-1.061l-.84-1.737-.841 1.766zm4.09.976 2.198-2.963-2.213-2.985h1.211l1.606 2.183-.585.802.585.803-1.605 2.182h-2.222l-.47-.997H14.2zM18.054 12l-.593-.816 1.605-2.182h1.185zm0 0 2.197 2.998h-1.184l-1.605-2.182zM8.567 9.869a2.97 2.97 0 0 1 .814 2.132 3.1 3.1 0 0 1-.814 2.132c-.542.607-1.211.867-2.001.867a2.68 2.68 0 0 1-2.001-.867A3 3 0 0 1 3.75 12a2.97 2.97 0 0 1 .519-1.736l.69.735a2.12 2.12 0 0 0 .271 2.449 1.8 1.8 0 0 0 1.335.607 1.8 1.8 0 0 0 1.335-.607 2 2 0 0 0 .542-1.421 2.12 2.12 0 0 0-.543-1.422 1.75 1.75 0 0 0-1.335-.578 1.64 1.64 0 0 0-.936.263l-.69-.735a2.56 2.56 0 0 1 1.63-.552 2.63 2.63 0 0 1 1.998.865z"/></svg>
